X: 10079
T: Did Ye, Aye?
R: reel
M: 4/4
K: Cdorian
|:B,|G,2CG, B,CC/C/C|ECEF ECB,F,|G,B, CG, B,CC/C/C|ECEF GFGB|
c2ec ecBF|GcBG FEDE|G2EG FEDE|1 CG,B,E C3:|2 CG,B,E CEGB||
|:c2ec ecBF|GcBG FEFG|Eeec efg2|g/g/ggb gfed|
c2ec ecBF|GcBG FEDE|G2EG FEDE|1 CG,B,E CEGB:|2 CG,B,E C3||

